symbolic/32x32/apps/miktex-console.svg

<svg xmlns="http://www.w3.org/2000/svg" width="32" height="32" version="1">
 <circle style="opacity:0.2" class="cls-1" cx="16" cy="17" r="14"/>
 <circle style="fill:#455e9c" class="cls-1" cx="16" cy="16" r="14"/>
 <path style="opacity:0.2" d="m 12.138672,9.9785156 c -0.727437,0.021679 -1.416688,0.3256964 -1.923828,0.8476564 L 4.9160156,16.125 C 2.1674102,18.764025 6.2359748,22.832589 8.875,20.083984 l 5.298828,-5.298828 C 16.005317,13.004872 12.138672,9.9785156 12.138672,9.9785156 Z M 6.5,17 C 7.3284267,17 8,17.671574 8,18.5 8,19.328427 7.3284267,20 6.5,20 5.6715729,20 5,19.328427 5,18.5 5,17.671574 5.6715729,17 6.5,17 Z"/>
 <path style="fill:#a2afce" d="M 12.138672 8.9785156 C 11.411235 9.0001946 10.721984 9.304212 10.214844 9.8261719 L 4.9160156 15.125 C 2.1674102 17.764025 6.2359748 21.832589 8.875 19.083984 L 14.173828 13.785156 C 16.005317 12.004872 12.138672 8.9785156 12.138672 8.9785156 z M 6.5 16 C 7.3284267 16 8 16.671574 8 17.5 C 8 18.328427 7.3284267 19 6.5 19 C 5.6715729 19 5 18.328427 5 17.5 C 5 16.671574 5.6715729 16 6.5 16 z"/>
 <path style="opacity:0.2" d="m 15,5 c -2.761424,2e-7 -5,2.2385764 -5,5 0,2.761424 2.238576,5 5,5 1.928658,-0.0028 3.683757,-1.257439 4.510324,-3 H 15 L 13.571429,10.097656 15,8 h 4.511719 C 18.684936,6.2569848 16.929162,5.0022465 15,5 Z"/>
 <path style="fill:#ffffff" d="m 15,4 c -2.761424,2e-7 -5,2.2385764 -5,5.0000001 C 10,11.761424 12.238576,14 15,14 c 1.928658,-0.0028 3.683757,-1.257439 4.510324,-3 H 15 L 13.571429,9.0976565 15,7 h 4.511719 C 18.684936,5.2569848 16.929162,4.0022465 15,4 Z"/>
 <path style="opacity:0.2" d="m 11,19 v 1 h 2 v 6 h 1 v -6 h 2 v -1 h -2.199219 -1.40039 z m 10,0 1.96875,3.5 L 21,26 h 1.064453 L 23.498047,23.445312 24.935547,26 H 26 L 24.029297,22.5 26,19 h -1.064453 l -1.4375,2.554688 L 22.064453,19 Z m -5,3 v 1 2 1 2 1 h 4 v -1 h -3 v -2 h 3 v -1 h -3 v -2 h 3 v -1 z"/>
 <path style="fill:#ffffff" d="M 11 18 L 11 19 L 13 19 L 13 25 L 14 25 L 14 19 L 16 19 L 16 18 L 13.800781 18 L 12.400391 18 L 11 18 z M 21 18 L 22.96875 21.5 L 21 25 L 22.064453 25 L 23.498047 22.445312 L 24.935547 25 L 26 25 L 24.029297 21.5 L 26 18 L 24.935547 18 L 23.498047 20.554688 L 22.064453 18 L 21 18 z M 16 21 L 16 22 L 16 24 L 16 25 L 16 27 L 16 28 L 20 28 L 20 27 L 17 27 L 17 25 L 20 25 L 20 24 L 17 24 L 17 22 L 20 22 L 20 21 L 16 21 z"/>
 <path style="fill:#ffffff;opacity:0.1" d="M 16 2 A 14 14 0 0 0 2 16 A 14 14 0 0 0 2.0214844 16.585938 A 14 14 0 0 1 16 3 A 14 14 0 0 1 29.978516 16.414062 A 14 14 0 0 0 30 16 A 14 14 0 0 0 16 2 z"/>
</svg>

<svg xmlns="http://www.w3.org/2000/svg" width="32" height="32" version="1"><circle style="opacity:.2" class="cls-1" cx="16" cy="17" r="14"/><circle style="fill:#455e9c" class="cls-1" cx="16" cy="16" r="14"/><path style="opacity:.2" d="M12.139 9.979a2.798 2.798 0 0 0-1.924.847l-5.299 5.299c-2.749 2.639 1.32 6.708 3.959 3.959l5.299-5.299c1.831-1.78-2.035-4.806-2.035-4.806zM6.5 17a1.5 1.5 0 1 1 0 3 1.5 1.5 0 0 1 0-3z"/><path style="fill:#a2afce" d="M12.139 8.979a2.798 2.798 0 0 0-1.924.847l-5.299 5.299c-2.749 2.639 1.32 6.708 3.959 3.959l5.299-5.299c1.831-1.78-2.035-4.806-2.035-4.806zM6.5 16a1.5 1.5 0 1 1 0 3 1.5 1.5 0 0 1 0-3z"/><path style="opacity:.2" d="M15 5a5 5 0 0 0 0 10c1.929-.003 3.684-1.257 4.51-3H15l-1.429-1.902L15 8h4.512C18.685 6.257 16.929 5.002 15 5z"/><path style="fill:#fff" d="M15 4a5 5 0 0 0 0 10c1.929-.003 3.684-1.257 4.51-3H15l-1.429-1.902L15 7h4.512C18.685 5.257 16.929 4.002 15 4z"/><path style="opacity:.2" d="M11 19v1h2v6h1v-6h2v-1h-3.6zm10 0 1.969 3.5L21 26h1.064l1.434-2.555L24.936 26H26l-1.97-3.5L26 19h-1.064l-1.438 2.555L22.064 19zm-5 3v7h4v-1h-3v-2h3v-1h-3v-2h3v-1z"/><path style="fill:#fff" d="M11 18v1h2v6h1v-6h2v-1h-5zm10 0 1.969 3.5L21 25h1.064l1.434-2.555L24.936 25H26l-1.97-3.5L26 18h-1.064l-1.438 2.555L22.064 18H21zm-5 3v7h4v-1h-3v-2h3v-1h-3v-2h3v-1h-4z"/><path style="fill:#fff;opacity:.1" d="M16 2A14 14 0 0 0 2 16a14 14 0 0 0 .021.586A14 14 0 0 1 16 3a14 14 0 0 1 13.979 13.414A14 14 0 0 0 30 16 14 14 0 0 0 16 2z"/></svg>
